icons/shield40_nl_city.svg

<svg width="35" height="20" xmlns="http://www.w3.org/2000/svg">
 <path d="m 0.6035908,14.754476 c 0.0480771,0.22112 0.10277326,0.445328 0.2052186,0.647096 0.08909,0.175464 0.2150978,0.334955 0.3606495,0.467391 0.1681024,0.152955 0.3611005,0.283002 0.5678311,0.377427 1.121262,0.512142 2.2384404,1.04564 3.4069863,1.438092 1.228699,0.412654 2.4955639,0.71048 3.7653157,0.970701 1.364503,0.279639 2.74206,0.510266 4.128197,0.646984 1.473351,0.14532 2.956593,0.197833 4.437094,0.197833 1.497734,0 2.998263,-0.05165 4.488846,-0.197833 1.385603,-0.135892 2.762414,-0.367595 4.126321,-0.647096 1.27048,-0.260356 2.538225,-0.557735 3.767637,-0.970589 1.167986,-0.392226 2.286973,-0.920409 3.405023,-1.438092 0.193375,-0.08954 0.358374,-0.234012 0.515991,-0.377427 0.153693,-0.139844 0.311513,-0.285782 0.41249,-0.467391 0.11006,-0.197945 0.159055,-0.425784 0.207181,-0.647096 C 34.453594,14.500534 34.5,14.241373 34.5,13.981496 V 6.0368551 C 34.5,5.7710597 34.456975,5.5052262 34.398372,5.2459717 34.353436,5.0471771 34.291468,4.8481472 34.191191,4.6707126 34.082179,4.4778226 33.942579,4.2986106 33.778701,4.1494994 33.628536,4.0128653 33.446609,3.9119164 33.26271,3.8258952 32.138088,3.2998383 31.031316,2.7213902 29.857954,2.3155183 28.632325,1.891567 27.360794,1.6053021 26.090319,1.3449293 24.72641,1.0654081 23.349605,0.83361534 21.963996,0.69772085 20.473445,0.55153409 18.972943,0.5 17.47524,0.5 15.994741,0.5 14.511493,0.55238134 13.038145,0.69772085 11.651999,0.83445821 10.27446,1.0652692 8.90995,1.3449293 7.6402105,1.605166 6.3695838,1.8918941 5.1446332,2.3155183 3.9705556,2.7215491 2.8653771,3.3051219 1.73729,3.8254476 1.5394634,3.9166943 1.3305951,4.0024352 1.1694589,4.1490518 1.013191,4.2912388 0.90570166,4.4825186 0.8088094,4.670265 0.71544149,4.8511823 0.64847861,5.0469448 0.6035908,5.2455241 0.54496912,5.5048607 0.5,5.7705279 0.5,6.0364075 v 7.9448645 c 0,0.260037 0.0483428,0.519103 0.1035908,0.773204 z" fill="#fff" stroke="#231f20" stroke-width="1.301" style="stroke:#231f20;stroke-width:1;stroke-miterlimit:4;stroke-dasharray:none;stroke-opacity:1"/>
</svg>

<svg width="35" height="20" xmlns="http://www.w3.org/2000/svg">
 <path d="M.604 14.754c.048.222.102.446.205.648.089.175.215.335.36.467.169.153.362.283.568.377 1.122.513 2.239 1.046 3.407 1.438 1.229.413 2.496.711 3.766.971 1.364.28 2.742.51 4.128.647 1.473.145 2.956.198 4.437.198 1.498 0 2.998-.052 4.489-.198a40.066 40.066 0 0 0 4.126-.647c1.27-.26 2.538-.558 3.768-.97 1.168-.393 2.287-.92 3.405-1.439.193-.09.358-.234.516-.377.153-.14.311-.286.412-.467.11-.198.16-.426.207-.648a3.66 3.66 0 0 0 .102-.773V6.037c0-.266-.043-.532-.102-.791a2.112 2.112 0 0 0-.207-.575 2.111 2.111 0 0 0-.412-.522 2.045 2.045 0 0 0-.516-.323c-1.125-.526-2.232-1.105-3.405-1.51-1.226-.424-2.497-.71-3.768-.971a40.061 40.061 0 0 0-4.126-.647A46.005 46.005 0 0 0 17.475.5c-1.48 0-2.964.052-4.437.198a40.292 40.292 0 0 0-4.128.647c-1.27.26-2.54.547-3.765.97-1.174.407-2.28.99-3.408 1.51-.198.092-.406.177-.568.324-.156.142-.263.334-.36.521a2.42 2.42 0 0 0-.205.576C.545 5.505.5 5.77.5 6.036v7.945c0 .26.048.52.104.773z" fill="#fff" stroke="#231f20" stroke-width="1.301" style="stroke:#231f20;stroke-width:1;stroke-miterlimit:4;stroke-dasharray:none;stroke-opacity:1"/>
</svg>
